src/img/icons/steam.svg

<svg xmlns="http://www.w3.org/2000/svg" xmlns:xlink="http://www.w3.org/1999/xlink" width="384pt" height="384pt" version="1.1" viewBox="0 0 384 384"> <defs> <filter id="alpha" width="100%" height="100%" x="0%" y="0%" filterUnits="objectBoundingBox"> <feColorMatrix in="SourceGraphic" type="matrix" values="0 0 0 0 1 0 0 0 0 1 0 0 0 0 1 0 0 0 1 0"/> </filter> <mask id="mask0"> <g filter="url(#alpha)"> <rect width="384" height="384" x="0" y="0" style="fill:rgb(0%,0%,0%);fill-opacity:0.301961"/> </g> </mask> <clipPath id="clip1"> <rect width="384" height="384" x="0" y="0"/> </clipPath> <g id="surface5" clip-path="url(#clip1)"> <path style="fill:rgb(0%,0%,0%)" d="M 291.871094 88.699219 C 279.792969 88.609375 272.34375 89.90625 262.511719 93.808594 C 235.558594 104.511719 216.242188 130.640625 214.503906 158.746094 C 214.300781 162.027344 214.164062 163.832031 213.691406 165.449219 C 213.699219 165.445312 213.707031 165.429688 213.710938 165.421875 C 214.042969 165.390625 214.546875 169.636719 214.8125 172.523438 C 215.988281 185.300781 222.941406 201.835938 231.878906 213.117188 C 244.03125 228.460938 264.316406 240.09375 282.765625 242.304688 C 285.023438 242.574219 287.183594 242.519531 287.453125 242.804688 C 288.957031 242.269531 291.246094 242.039062 296.105469 241.785156 C 314.445312 240.839844 331.636719 233.097656 345.101562 219.71875 C 368.125 196.847656 374.289062 162.140625 360.539062 132.78125 C 350.734375 111.851562 332.546875 96.765625 309.871094 90.761719 C 303.578125 89.09375 300.679688 88.761719 291.871094 88.699219 Z M 66.210938 141.652344 C 56.726562 141.625 48.917969 144.609375 42.492188 150.71875 C 29.632812 162.949219 27.359375 181.847656 36.976562 196.578125 C 39.835938 200.953125 44.519531 205.46875 48.28125 207.46875 C 53.488281 210.242188 87.3125 230.527344 87.371094 231.433594 C 87.375 231.46875 87.355469 231.503906 87.347656 231.535156 L 87.652344 231.425781 L 97.136719 237.609375 C 102.351562 241.007812 113.578125 248.421875 122.078125 254.082031 L 137.539062 264.375 L 137.578125 264.722656 C 137.609375 264.609375 137.644531 264.511719 137.695312 264.460938 C 137.960938 264.191406 144.199219 270.085938 147.703125 272.472656 C 151.207031 274.855469 154.328125 277.117188 154.328125 277.117188 C 154.765625 277.457031 160.054688 281.246094 167.136719 286.472656 C 182.183594 297.585938 186.445312 298.773438 195.4375 298.847656 C 207.734375 298.945312 217.960938 293.578125 224.523438 283.589844 C 230.359375 274.703125 232.125 263.3125 229.160156 253.628906 C 225.96875 243.210938 221.371094 238.226562 205.757812 228.261719 C 199.871094 224.507812 193.800781 221.003906 192.296875 220.167969 C 190.960938 219.425781 182.300781 215.296875 179.015625 213.03125 C 177.117188 211.722656 174.597656 210.089844 174.761719 209.882812 C 172.261719 208.960938 164.769531 204.226562 148.621094 193.425781 L 123.121094 176.371094 L 123.105469 176.238281 C 123.09375 176.257812 123.085938 176.289062 123.070312 176.300781 C 122.855469 176.523438 117.605469 170.371094 114.464844 167.929688 C 111.535156 165.644531 108.625 163.117188 108.105469 162.8125 C 107.65625 162.546875 101.917969 158.195312 95.015625 153.421875 C 80.386719 143.304688 74.921875 141.675781 66.210938 141.648438 Z M 120.738281 162.425781 C 121.230469 164.230469 121.667969 166.054688 122.03125 167.773438 C 121.699219 165.96875 121.273438 164.183594 120.738281 162.425781 Z M 204.1875 181.78125 C 203.332031 183.160156 202.75 184.097656 201.824219 185.589844 C 202.671875 184.238281 203.464844 182.960938 204.1875 181.78125 Z M 138.386719 271.363281 C 139.117188 276.066406 140.394531 280.585938 142.175781 284.859375 C 140.691406 280.636719 139.265625 275.460938 138.386719 271.363281 Z M 138.386719 271.363281"/> </g> <mask id="mask1"> <g filter="url(#alpha)"> <rect width="384" height="384" x="0" y="0" style="fill:rgb(0%,0%,0%);fill-opacity:0.301961"/> </g> </mask> <clipPath id="clip2"> <rect width="384" height="384" x="0" y="0"/> </clipPath> <g id="surface8" clip-path="url(#clip2)"> <path style="fill:rgb(0%,0%,0%);fill-opacity:0.996078" d="M 280.515625 215.042969 C 269.210938 212.507812 257.386719 204.90625 250.640625 195.84375 C 242.667969 185.128906 239.238281 173.988281 239.824219 160.707031 C 240.785156 138.976562 254.585938 120.289062 274.914062 113.195312 C 280.765625 111.15625 282.144531 110.980469 291.980469 111.015625 C 302.070312 111.054688 303.042969 111.199219 309.003906 113.496094 C 322.199219 118.578125 331.933594 127.410156 337.917969 139.726562 C 342.375 148.898438 343.84375 156.074219 343.324219 166.148438 C 342.183594 188.351562 328.128906 206.867188 307.265625 213.648438 C 299.425781 216.195312 288.25 216.78125 280.515625 215.042969 Z M 280.515625 215.042969"/> </g> </defs> <g> <path style="fill:rgb(16.862%,38.431%,75.294%)" d="M 181.003906 312.09375 C 164.777344 307.632812 151.578125 297.25 144.21875 282.398438 C 140.847656 275.589844 136.527344 258.148438 137.695312 256.960938 C 137.960938 256.691406 144.203125 262.589844 147.703125 264.972656 C 151.207031 267.355469 154.328125 269.617188 154.328125 269.617188 C 154.769531 269.957031 160.054688 273.742188 167.136719 278.972656 C 182.183594 290.082031 186.445312 291.273438 195.4375 291.34375 C 207.734375 291.441406 217.964844 286.078125 224.523438 276.089844 C 230.359375 267.203125 232.121094 255.808594 229.160156 246.128906 C 225.96875 235.710938 221.371094 230.726562 205.757812 220.765625 C 199.871094 217.007812 193.800781 213.503906 192.296875 212.664062 C 190.964844 211.925781 182.300781 207.796875 179.015625 205.53125 C 177.078125 204.195312 174.484375 202.519531 174.769531 202.367188 C 176.515625 201.457031 180.074219 201.40625 185.410156 199.753906 L 188.664062 198.742188 L 197.148438 185.492188 C 201.75 178.300781 206.496094 170.644531 207.707031 168.339844 C 210.183594 163.625 213.195312 158.515625 213.710938 157.925781 C 214.042969 157.890625 214.546875 162.136719 214.8125 165.023438 C 215.988281 177.800781 222.941406 194.335938 231.875 205.617188 C 244.03125 220.960938 264.316406 232.597656 282.765625 234.804688 C 285.183594 235.09375 287.484375 235.011719 287.484375 235.371094 C 287.484375 236.15625 281.199219 240.480469 279.132812 241.675781 C 278.367188 242.121094 271.773438 246.296875 264.644531 251.300781 L 251.683594 260.40625 L 250.410156 267.011719 C 246.386719 287.847656 232.324219 304.21875 212.636719 310.984375 C 204.15625 313.898438 189.445312 314.414062 181.003906 312.09375 Z M 181.003906 312.09375"/> <path style="fill:rgb(16.862%,38.431%,75.294%)" d="M 56.300781 227.285156 C 30.339844 222.757812 11.851562 201.382812 8.964844 175.539062 C 5.828125 147.488281 22.40625 122.628906 49.601562 114.023438 C 57.023438 111.675781 71.691406 111.472656 79.386719 113.613281 C 89.5 116.425781 99.117188 122.347656 106.4375 130.03125 C 110.71875 134.523438 113.644531 139.804688 116.933594 144.921875 C 120.542969 150.539062 123.917969 167.941406 123.074219 168.804688 C 122.855469 169.023438 117.605469 162.875 114.464844 160.429688 C 111.535156 158.144531 108.625 155.617188 108.105469 155.3125 C 107.652344 155.046875 101.917969 150.695312 95.015625 145.921875 C 80.386719 135.804688 74.921875 134.175781 66.214844 134.148438 C 56.730469 134.121094 48.917969 137.109375 42.492188 143.21875 C 29.632812 155.449219 27.359375 174.347656 36.976562 189.078125 C 39.835938 193.453125 44.519531 197.96875 48.28125 199.96875 C 53.488281 202.742188 87.3125 223.027344 87.371094 223.933594 C 87.4375 224.9375 82.09375 226.722656 75.652344 227.46875 C 68.65625 228.285156 60.363281 227.996094 56.300781 227.285156 Z M 56.300781 227.285156"/> <use mask="url(#mask0)" xlink:href="#surface5"/> <path style="fill:rgb(44.705%,63.529%,95.686%)" d="M 291.871094 81.199219 C 279.792969 81.109375 272.34375 82.40625 262.511719 86.308594 C 235.558594 97.011719 216.242188 123.140625 214.503906 151.246094 C 214.300781 154.527344 214.164062 156.332031 213.691406 157.949219 C 213.695312 157.945312 213.707031 157.929688 213.710938 157.921875 C 214.042969 157.890625 214.546875 162.136719 214.8125 165.023438 C 215.988281 177.800781 222.941406 194.335938 231.878906 205.617188 C 244.03125 220.964844 264.316406 232.59375 282.765625 234.804688 C 285.023438 235.074219 287.183594 235.019531 287.453125 235.304688 C 288.957031 234.769531 291.246094 234.539062 296.105469 234.285156 C 314.445312 233.339844 331.636719 225.597656 345.101562 212.222656 C 368.125 189.347656 374.289062 154.640625 360.539062 125.28125 C 350.734375 104.351562 332.546875 89.265625 309.871094 83.261719 C 303.578125 81.59375 300.679688 81.261719 291.871094 81.199219 Z M 66.210938 134.152344 C 56.726562 134.125 48.917969 137.109375 42.492188 143.21875 C 29.632812 155.449219 27.359375 174.347656 36.976562 189.078125 C 39.835938 193.453125 44.519531 197.96875 48.28125 199.96875 C 53.488281 202.742188 87.3125 223.027344 87.371094 223.933594 C 87.375 223.96875 87.355469 224.003906 87.347656 224.035156 L 87.652344 223.925781 L 97.136719 230.109375 C 102.351562 233.507812 113.578125 240.921875 122.082031 246.582031 L 137.539062 256.875 L 137.578125 257.222656 C 137.609375 257.109375 137.644531 257.011719 137.695312 256.960938 C 137.960938 256.691406 144.199219 262.585938 147.703125 264.972656 C 151.207031 267.355469 154.328125 269.617188 154.328125 269.617188 C 154.765625 269.957031 160.054688 273.746094 167.136719 278.972656 C 182.183594 290.085938 186.445312 291.273438 195.441406 291.347656 C 207.734375 291.445312 217.964844 286.078125 224.523438 276.089844 C 230.359375 267.203125 232.125 255.8125 229.160156 246.128906 C 225.96875 235.710938 221.371094 230.726562 205.757812 220.761719 C 199.871094 217.007812 193.800781 213.503906 192.296875 212.667969 C 190.960938 211.925781 182.300781 207.796875 179.015625 205.53125 C 177.117188 204.222656 174.597656 202.589844 174.761719 202.382812 C 172.261719 201.460938 164.769531 196.726562 148.621094 185.925781 L 123.121094 168.871094 L 123.105469 168.738281 C 123.09375 168.757812 123.085938 168.789062 123.070312 168.800781 C 122.855469 169.023438 117.605469 162.871094 114.464844 160.429688 C 111.535156 158.144531 108.625 155.617188 108.105469 155.3125 C 107.65625 155.046875 101.917969 150.695312 95.015625 145.921875 C 80.386719 135.804688 74.921875 134.175781 66.210938 134.152344 Z M 120.738281 154.925781 C 121.230469 156.730469 121.667969 158.554688 122.035156 160.273438 C 121.699219 158.46875 121.273438 156.683594 120.738281 154.925781 Z M 204.1875 174.28125 C 203.332031 175.660156 202.75 176.597656 201.824219 178.089844 C 202.671875 176.738281 203.464844 175.460938 204.1875 174.28125 Z M 138.386719 263.863281 C 139.117188 268.566406 140.394531 273.085938 142.175781 277.359375 C 140.691406 273.136719 139.265625 267.960938 138.386719 263.863281 Z M 138.386719 263.863281"/> <use mask="url(#mask1)" xlink:href="#surface8"/> <path style="fill:rgb(16.862%,38.431%,75.294%)" d="M 280.515625 207.542969 C 269.210938 205.007812 257.386719 197.40625 250.640625 188.34375 C 242.667969 177.628906 239.238281 166.488281 239.824219 153.207031 C 240.785156 131.476562 254.585938 112.789062 274.914062 105.695312 C 280.765625 103.65625 282.144531 103.480469 291.980469 103.515625 C 302.070312 103.554688 303.042969 103.699219 309.003906 105.996094 C 322.199219 111.078125 331.933594 119.910156 337.917969 132.226562 C 342.375 141.398438 343.84375 148.574219 343.324219 158.648438 C 342.183594 180.851562 328.128906 199.367188 307.265625 206.148438 C 299.425781 208.695312 288.25 209.28125 280.515625 207.542969 Z M 280.515625 207.542969"/> </g> </svg>

<svg width="512" height="512" version="1.1" viewBox="0 0 384 384" xmlns="http://www.w3.org/2000/svg"><defs><clipPath><rect width="384" height="384"/></clipPath><clipPath><rect width="384" height="384"/></clipPath></defs><path d="m66.474 119.63c-6.2296-0.072-12.697 0.57055-16.872 1.8911-27.195 8.6055-43.773 33.465-40.636 61.516 2.8867 25.844 21.374 47.218 47.335 51.746 4.0625 0.71092 12.356 0.99951 19.352 0.18311 6.4414-0.7461 11.785-2.5308 11.719-3.5347-0.05859-0.90626-33.882-21.191-39.089-23.965-3.7617-2-8.4463-6.5161-11.306-10.891-9.6172-14.73-7.3428-33.628 5.5166-45.858 6.4258-6.1094 14.237-9.0976 23.722-9.0703 8.707 0.0273 14.173 1.6558 28.802 11.773 6.9024 4.7734 12.637 9.1255 13.09 9.3911 0.51952 0.30469 3.4292 2.8315 6.3589 5.1167 3.1406 2.4453 8.3901 8.5933 8.6089 8.3745 0.84375-0.86328-2.5312-18.266-6.1406-23.883-3.289-5.1172-6.2144-10.398-10.496-14.89-7.3203-7.6836-16.938-13.605-27.051-16.418-3.3667-0.93653-8.0674-1.425-12.913-1.481zm147.24 45.794c-0.51563 0.58984-3.5278 5.6987-6.0044 10.414-1.2109 2.3047-5.957 9.9604-10.559 17.152l-8.4844 13.251-3.2534 1.0107c-5.3359 1.6523-8.8945 1.7031-10.641 2.6133-0.28516 0.15234 2.3091 1.8281 4.2466 3.1641 3.2852 2.2656 11.948 6.3955 13.28 7.1338 1.5039 0.83985 7.5752 4.3428 13.462 8.1006 15.613 9.9609 20.211 14.946 23.402 25.364 2.9609 9.6797 1.1982 21.074-4.6377 29.96-6.5586 9.9883-16.789 15.353-29.086 15.255-8.9922-0.0703-13.254-1.2627-28.301-12.372-7.082-5.2305-12.367-9.0146-12.809-9.3545 0 0-3.1201-2.2622-6.624-4.645-3.5-2.3828-9.7422-8.2808-10.008-8.0112-1.168 1.1875 3.1519 18.628 6.5229 25.437 7.3594 14.852 20.559 25.234 36.785 29.695 8.4414 2.3203 23.153 1.8052 31.633-1.1089 19.688-6.7656 33.749-23.137 37.772-43.973l1.2744-6.605 12.961-9.1055c7.1289-5.0039 13.722-9.1802 14.487-9.6255 2.0664-1.1953 8.3525-5.5195 8.3525-6.3047 0-0.35937-2.3018-0.27784-4.7197-0.5669-18.449-2.207-38.734-13.843-50.89-29.187-8.9336-11.281-15.887-27.816-17.062-40.594-0.26563-2.8867-0.76953-7.1324-1.1016-7.0972z" opacity=".3"/><path d="m181 312.09c-16.227-4.4609-29.426-14.844-36.785-29.695-3.3711-6.8086-7.6914-24.25-6.5234-25.438 0.26563-0.26953 6.5078 5.6289 10.008 8.0117 3.5039 2.3828 6.625 4.6445 6.625 4.6445 0.44141 0.33984 5.7266 4.125 12.809 9.3555 15.047 11.109 19.309 12.301 28.301 12.371 12.297 0.0977 22.527-5.2656 29.086-15.254 5.8359-8.8867 7.5976-20.281 4.6367-29.961-3.1914-10.418-7.7891-15.402-23.402-25.363-5.8867-3.7578-11.957-7.2617-13.461-8.1016-1.332-0.73828-9.9961-4.8672-13.281-7.1328-1.9375-1.3359-4.5312-3.0117-4.2461-3.1641 1.7461-0.91016 5.3047-0.96094 10.641-2.6133l3.2539-1.0117 8.4844-13.25c4.6016-7.1914 9.3476-14.848 10.559-17.152 2.4766-4.7148 5.4883-9.8242 6.0039-10.414 0.33203-0.0352 0.83593 4.2109 1.1016 7.0977 1.1758 12.777 8.1289 29.312 17.062 40.594 12.156 15.344 32.441 26.98 50.891 29.188 2.418 0.28906 4.7188 0.20703 4.7188 0.5664 0 0.78516-6.2852 5.1094-8.3516 6.3047-0.76562 0.44531-7.3594 4.6211-14.488 9.625l-12.961 9.1055-1.2734 6.6055c-4.0234 20.836-18.086 37.207-37.773 43.973-8.4805 2.9141-23.191 3.4297-31.633 1.1094z" fill="#2861bf"/><path d="m56.301 227.29c-25.961-4.5274-44.449-25.902-47.336-51.746-3.1367-28.051 13.441-52.91 40.637-61.516 7.4219-2.3477 22.09-2.5508 29.785-0.41016 10.113 2.8125 19.73 8.7344 27.051 16.418 4.2812 4.4922 7.207 9.7734 10.496 14.891 3.6094 5.6172 6.9844 23.02 6.1406 23.883-0.21875 0.21875-5.4688-5.9297-8.6094-8.375-2.9297-2.2852-5.8398-4.8125-6.3594-5.1172-0.45313-0.26563-6.1875-4.6172-13.09-9.3906-14.629-10.117-20.094-11.746-28.801-11.773-9.4844-0.0273-17.297 2.9609-23.723 9.0703-12.859 12.23-15.133 31.129-5.5156 45.859 2.8594 4.375 7.543 8.8906 11.305 10.891 5.207 2.7734 39.031 23.059 39.09 23.965 0.06641 1.0039-5.2773 2.7891-11.719 3.5352-6.9961 0.81641-15.289 0.52734-19.352-0.18359z" fill="#2861bf"/><path d="m291.87 88.699c-12.078-0.0898-19.527 1.207-29.359 5.1094-26.953 10.703-46.27 36.832-48.008 64.937-0.20313 3.2812-0.33985 5.0859-0.8125 6.7031 4e-3 -4e-3 0.0156-0.0195 0.0195-0.0273 0.33203-0.0312 0.83593 4.2148 1.1016 7.1016 1.1758 12.777 8.1289 29.312 17.066 40.594 12.152 15.348 32.438 26.977 50.887 29.188 2.2578 0.26953 4.418 0.21484 4.6875 0.5 1.5039-0.53516 3.793-0.76563 8.6524-1.0195 18.34-0.94532 35.531-8.6875 48.996-22.062 23.023-22.875 29.187-57.582 15.438-86.941-9.8047-20.93-27.992-36.016-50.668-42.02-6.293-1.668-9.1914-2-18-2.0625zm-225.66 52.953c-9.4844-0.0273-17.293 2.957-23.719 9.0664-12.859 12.23-15.133 31.129-5.5156 45.859 2.8594 4.375 7.543 8.8906 11.305 10.891 5.207 2.7734 39.031 23.059 39.09 23.965 0.0039 0.0352-0.01563 0.0703-0.02344 0.10157l0.30469-0.10938 9.4844 6.1836c5.2148 3.3984 16.441 10.813 24.945 16.473l15.457 10.293 0.0391 0.34765c0.0312-0.11329 0.0664-0.21094 0.11719-0.26172 0.26563-0.26953 6.5039 5.625 10.008 8.0117 3.5039 2.3828 6.625 4.6445 6.625 4.6445 0.4375 0.33984 5.7266 4.1289 12.809 9.3555 15.047 11.113 19.309 12.301 28.305 12.375 12.293 0.0976 22.523-5.2695 29.082-15.258 5.8359-8.8867 7.6016-20.277 4.6367-29.961-3.1914-10.418-7.7891-15.402-23.402-25.367-5.8867-3.7539-11.957-7.2578-13.461-8.0938-1.3359-0.74219-9.9961-4.8711-13.281-7.1367-1.8984-1.3086-4.418-2.9414-4.2539-3.1484-2.5-0.92187-9.9922-5.6562-26.141-16.457l-25.5-17.055-0.0156-0.13281c-0.0117 0.0195-0.0195 0.0508-0.0352 0.0625-0.21484 0.22266-5.4648-5.9297-8.6055-8.3711-2.9297-2.2852-5.8398-4.8125-6.3594-5.1172-0.44922-0.2656-6.1875-4.6172-13.09-9.3906-14.629-10.117-20.094-11.746-28.805-11.77zm54.527 20.773c0.49218 1.8047 0.92968 3.6289 1.2969 5.3477-0.33594-1.8047-0.76172-3.5898-1.2969-5.3477zm83.449 19.355c-0.85547 1.3789-1.4375 2.3164-2.3633 3.8086 0.84765-1.3516 1.6406-2.6289 2.3633-3.8086zm-65.801 89.582c0.73048 4.7031 2.0078 9.2227 3.7891 13.496-1.4844-4.2226-2.9102-9.3984-3.7891-13.496z" fill="#000f28" opacity=".3"/><path d="m291.87 81.199c-12.078-0.08984-19.527 1.207-29.359 5.1094-26.953 10.703-46.27 36.832-48.008 64.937-0.20313 3.2812-0.33985 5.0859-0.8125 6.7031 4e-3 -4e-3 0.0156-0.0195 0.0195-0.0273 0.33203-0.0312 0.83593 4.2148 1.1016 7.1016 1.1758 12.777 8.1289 29.312 17.066 40.594 12.152 15.348 32.438 26.977 50.887 29.188 2.2578 0.26953 4.418 0.21484 4.6875 0.5 1.5039-0.53516 3.793-0.76563 8.6524-1.0195 18.34-0.94532 35.531-8.6875 48.996-22.062 23.023-22.875 29.188-57.582 15.438-86.941-9.8047-20.93-27.992-36.016-50.668-42.02-6.293-1.668-9.1914-2-18-2.0625zm-225.66 52.953c-9.4844-0.0273-17.293 2.957-23.719 9.0664-12.859 12.23-15.133 31.129-5.5156 45.859 2.8594 4.375 7.543 8.8906 11.305 10.891 5.207 2.7734 39.031 23.059 39.09 23.965 0.0039 0.0352-0.01563 0.0703-0.02344 0.10157l0.30469-0.10938 9.4844 6.1836c5.2148 3.3984 16.441 10.812 24.945 16.473l15.457 10.293 0.0391 0.34766c0.0312-0.11329 0.0664-0.21094 0.11719-0.26172 0.26563-0.26953 6.5039 5.625 10.008 8.0117 3.5039 2.3828 6.625 4.6445 6.625 4.6445 0.4375 0.33984 5.7266 4.1289 12.809 9.3555 15.047 11.113 19.309 12.301 28.305 12.375 12.293 0.0976 22.523-5.2695 29.082-15.258 5.8359-8.8867 7.6016-20.277 4.6367-29.961-3.1914-10.418-7.7891-15.402-23.402-25.367l-110.74-74.84c-14.629-10.117-20.094-11.746-28.805-11.77zm137.98 40.129c-136.12 139.81-68.062 69.906 0 0zm-65.801 89.582c0.73047 4.7031 2.0078 9.2227 3.7891 13.496-1.4844-4.2226-2.9102-9.3984-3.7891-13.496z" fill="#70a1f3"/><path d="m280.52 215.04c-11.305-2.5352-23.129-10.137-29.875-19.199-7.9726-10.715-11.402-21.855-10.816-35.137 0.96094-21.73 14.762-40.418 35.09-47.512 5.8516-2.0391 7.2305-2.2148 17.066-2.1797 10.09 0.0391 11.062 0.18359 17.023 2.4805 13.195 5.082 22.93 13.914 28.914 26.23 4.457 9.1719 5.9258 16.348 5.4062 26.422-1.1406 22.203-15.195 40.719-36.059 47.5-7.8398 2.5469-19.016 3.1328-26.75 1.3945z" opacity=".3"/><path d="m280.52 207.54c-11.305-2.5352-23.129-10.137-29.875-19.199-7.9726-10.715-11.402-21.855-10.816-35.137 0.96094-21.73 14.762-40.418 35.09-47.512 5.8516-2.0391 7.2305-2.2148 17.066-2.1797 10.09 0.0391 11.062 0.18359 17.023 2.4805 13.195 5.082 22.93 13.914 28.914 26.23 4.457 9.1719 5.9258 16.348 5.4062 26.422-1.1406 22.203-15.195 40.719-36.059 47.5-7.8398 2.5469-19.016 3.1328-26.75 1.3945z" fill="#2861bf"/></svg>
